X:65
T:Stay a Wee Bit, Bonnie Lad
Z:Jack Campin, http://www.campin.me.uk/
S:Northumbrian Minstrelsy
M:C
L:1/8
K:D
   DFAF dFE2|DFAF BABd |\
   GeFd eFEF|DFAd BABd::\
   adab afdf|
             adab abaf |\ 
[1yadab afdf|dABA dABd:|\
[2ygbaf edef|dABA dABd|]

